X:1755
T:Bonny Dundee
R:Jig
S:sessions
O:Scotland
M:6/8
K:A
A/c/ |\
efe efe|agf e2d|ceE BeE|BcB Bcd|\
efe efe|agf e2d|ceE BeE|ABA A2:|
|:e|\
A3 d2c|BGE E2G|BcB Bcd|dcc c2A|\
cBc dcd|ede fed|ceE BeE|ABA A2:|


